src/assets/duotone/MouseCircle.svg

<?xml version="1.0" encoding="UTF-8"?>
<svg width="24" height="24" viewBox="0 0 24 24" xmlns="http://www.w3.org/2000/svg">
 <path d="m20.96 17.84-1.63 0.55c-0.45 0.15-0.81 0.5-0.96 0.96l-0.55 1.63c-0.47 1.41-2.45 1.38-2.89-0.03l-1.85-5.95c-0.36-1.18 0.73-2.28 1.9-1.91l5.96 1.85c1.4 0.44 1.42 2.43 0.02 2.9z"/>
 <path d="m11.5 21c5.2467 0 9.5-4.2533 9.5-9.5 0-5.2467-4.2533-9.5-9.5-9.5-5.2467 0-9.5 4.2533-9.5 9.5 0 5.2467 4.2533 9.5 9.5 9.5z" opacity=".4"/>
</svg>

<svg width="24" height="24" viewBox="0 0 24 24"  xmlns="http://www.w3.org/2000/svg">
<path d="M20.9602 17.8405L19.3302 18.3905C18.8802 18.5405 18.5202 18.8905 18.3702 19.3505L17.8202 20.9805C17.3502 22.3905 15.3702 22.3605 14.9302 20.9505L13.0802 15.0005C12.7202 13.8205 13.8102 12.7205 14.9802 13.0905L20.9402 14.9405C22.3402 15.3805 22.3602 17.3705 20.9602 17.8405Z" />
<path opacity="0.4" d="M11.5 21C16.7467 21 21 16.7467 21 11.5C21 6.25329 16.7467 2 11.5 2C6.25329 2 2 6.25329 2 11.5C2 16.7467 6.25329 21 11.5 21Z" />
</svg>
